images/soon.svg

<svg width="94" height="18" viewBox="0 0 94 18" fill="none" xmlns="http://www.w3.org/2000/svg">
<rect width="94" height="18" rx="9" fill="#00A490"/>
<path d="M17.299 7.104C17.027 7.104 16.775 7.152 16.543 7.248C16.311 7.336 16.111 7.472 15.943 7.656C15.775 7.832 15.643 8.056 15.547 8.328C15.451 8.592 15.403 8.896 15.403 9.24C15.403 9.928 15.575 10.456 15.919 10.824C16.263 11.184 16.723 11.364 17.299 11.364C17.635 11.364 17.915 11.32 18.139 11.232C18.363 11.136 18.563 11.028 18.739 10.908C18.827 10.956 18.899 11.016 18.955 11.088C19.011 11.16 19.039 11.248 19.039 11.352C19.039 11.464 18.995 11.568 18.907 11.664C18.819 11.76 18.695 11.844 18.535 11.916C18.383 11.988 18.199 12.044 17.983 12.084C17.775 12.132 17.547 12.156 17.299 12.156C16.883 12.156 16.499 12.096 16.147 11.976C15.795 11.856 15.491 11.676 15.235 11.436C14.979 11.196 14.779 10.896 14.635 10.536C14.491 10.168 14.419 9.736 14.419 9.24C14.419 8.752 14.495 8.328 14.647 7.968C14.799 7.6 15.003 7.292 15.259 7.044C15.515 6.796 15.815 6.612 16.159 6.492C16.511 6.364 16.883 6.3 17.275 6.3C17.523 6.3 17.751 6.324 17.959 6.372C18.175 6.412 18.359 6.472 18.511 6.552C18.663 6.632 18.779 6.724 18.859 6.828C18.947 6.924 18.991 7.024 18.991 7.128C18.991 7.224 18.963 7.308 18.907 7.38C18.851 7.452 18.779 7.508 18.691 7.548C18.515 7.428 18.323 7.324 18.115 7.236C17.907 7.148 17.635 7.104 17.299 7.104ZM25.4688 9.228C25.4688 9.676 25.4048 10.08 25.2768 10.44C25.1488 10.8 24.9648 11.108 24.7248 11.364C24.4928 11.62 24.2088 11.816 23.8728 11.952C23.5368 12.088 23.1608 12.156 22.7448 12.156C22.3288 12.156 21.9528 12.088 21.6168 11.952C21.2808 11.816 20.9928 11.62 20.7528 11.364C20.5128 11.108 20.3288 10.8 20.2008 10.44C20.0728 10.08 20.0088 9.676 20.0088 9.228C20.0088 8.78 20.0728 8.376 20.2008 8.016C20.3368 7.656 20.5248 7.348 20.7648 7.092C21.0048 6.836 21.2928 6.64 21.6288 6.504C21.9648 6.368 22.3368 6.3 22.7448 6.3C23.1528 6.3 23.5248 6.368 23.8608 6.504C24.1968 6.64 24.4808 6.836 24.7128 7.092C24.9528 7.348 25.1368 7.656 25.2648 8.016C25.4008 8.376 25.4688 8.78 25.4688 9.228ZM22.7448 7.092C22.2008 7.092 21.7728 7.28 21.4608 7.656C21.1488 8.032 20.9928 8.556 20.9928 9.228C20.9928 9.908 21.1448 10.436 21.4488 10.812C21.7608 11.18 22.1928 11.364 22.7448 11.364C23.2968 11.364 23.7248 11.176 24.0288 10.8C24.3328 10.424 24.4848 9.9 24.4848 9.228C24.4848 8.556 24.3288 8.032 24.0168 7.656C23.7128 7.28 23.2888 7.092 22.7448 7.092ZM33.9856 8.232C33.9856 7.84 33.8736 7.552 33.6496 7.368C33.4256 7.184 33.1256 7.092 32.7496 7.092C32.2296 7.092 31.7656 7.276 31.3576 7.644C31.4056 7.804 31.4296 7.976 31.4296 8.16V11.976C31.3896 11.992 31.3256 12.008 31.2376 12.024C31.1576 12.048 31.0736 12.06 30.9856 12.06C30.6416 12.06 30.4696 11.916 30.4696 11.628V8.232C30.4696 7.84 30.3576 7.552 30.1336 7.368C29.9096 7.184 29.6056 7.092 29.2216 7.092C28.9656 7.092 28.7216 7.132 28.4896 7.212C28.2656 7.292 28.0736 7.384 27.9136 7.488V11.976C27.8736 11.992 27.8136 12.008 27.7336 12.024C27.6536 12.048 27.5656 12.06 27.4696 12.06C27.1256 12.06 26.9536 11.916 26.9536 11.628V7.536C26.9536 7.376 26.9856 7.244 27.0496 7.14C27.1216 7.028 27.2416 6.916 27.4096 6.804C27.6256 6.668 27.8976 6.552 28.2256 6.456C28.5616 6.352 28.8976 6.3 29.2336 6.3C29.6256 6.3 29.9736 6.36 30.2776 6.48C30.5816 6.592 30.8136 6.748 30.9736 6.948C31.1816 6.764 31.4416 6.612 31.7536 6.492C32.0656 6.364 32.4216 6.3 32.8216 6.3C33.4696 6.3 33.9856 6.456 34.3696 6.768C34.7536 7.072 34.9456 7.544 34.9456 8.184V11.976C34.9056 11.992 34.8416 12.008 34.7536 12.024C34.6736 12.048 34.5896 12.06 34.5016 12.06C34.1576 12.06 33.9856 11.916 33.9856 11.628V8.232ZM37.7705 11.976C37.7305 11.992 37.6705 12.008 37.5905 12.024C37.5105 12.048 37.4225 12.06 37.3265 12.06C36.9825 12.06 36.8105 11.916 36.8105 11.628V6.48C36.8505 6.464 36.9105 6.448 36.9905 6.432C37.0785 6.408 37.1705 6.396 37.2665 6.396C37.6025 6.396 37.7705 6.544 37.7705 6.84V11.976ZM36.6665 4.704C36.6665 4.536 36.7225 4.396 36.8345 4.284C36.9545 4.164 37.1065 4.104 37.2905 4.104C37.4745 4.104 37.6225 4.164 37.7345 4.284C37.8465 4.396 37.9025 4.536 37.9025 4.704C37.9025 4.872 37.8465 5.016 37.7345 5.136C37.6225 5.248 37.4745 5.304 37.2905 5.304C37.1065 5.304 36.9545 5.248 36.8345 5.136C36.7225 5.016 36.6665 4.872 36.6665 4.704ZM43.485 8.388C43.485 7.94 43.357 7.612 43.101 7.404C42.853 7.196 42.517 7.092 42.093 7.092C41.773 7.092 41.489 7.132 41.241 7.212C40.993 7.292 40.781 7.384 40.605 7.488V11.976C40.565 11.992 40.505 12.008 40.425 12.024C40.345 12.048 40.257 12.06 40.161 12.06C39.817 12.06 39.645 11.916 39.645 11.628V7.536C39.645 7.368 39.677 7.232 39.741 7.128C39.813 7.016 39.933 6.908 40.101 6.804C40.309 6.676 40.585 6.56 40.929 6.456C41.273 6.352 41.661 6.3 42.093 6.3C42.821 6.3 43.393 6.464 43.809 6.792C44.233 7.12 44.445 7.636 44.445 8.34V11.976C44.405 11.992 44.341 12.008 44.253 12.024C44.173 12.048 44.089 12.06 44.001 12.06C43.657 12.06 43.485 11.916 43.485 11.628V8.388ZM49.9507 11.424C49.8147 11.536 49.6267 11.632 49.3867 11.712C49.1547 11.792 48.8747 11.832 48.5467 11.832C48.1947 11.832 47.8627 11.784 47.5507 11.688C47.2387 11.584 46.9627 11.424 46.7227 11.208C46.4907 10.984 46.3027 10.696 46.1587 10.344C46.0227 9.992 45.9547 9.564 45.9547 9.06C45.9547 8.604 46.0227 8.204 46.1587 7.86C46.2947 7.516 46.4827 7.228 46.7227 6.996C46.9707 6.764 47.2627 6.592 47.5987 6.48C47.9347 6.36 48.3067 6.3 48.7147 6.3C49.0827 6.3 49.4187 6.348 49.7227 6.444C50.0347 6.532 50.2947 6.644 50.5027 6.78C50.6227 6.86 50.7187 6.952 50.7907 7.056C50.8707 7.152 50.9107 7.272 50.9107 7.416V12.24C50.9107 12.64 50.8427 12.976 50.7067 13.248C50.5787 13.528 50.3947 13.752 50.1547 13.92C49.9227 14.096 49.6467 14.224 49.3267 14.304C49.0067 14.384 48.6627 14.424 48.2947 14.424C47.8867 14.424 47.5387 14.38 47.2507 14.292C46.9707 14.212 46.7787 14.14 46.6747 14.076C46.4347 13.94 46.3147 13.768 46.3147 13.56C46.3147 13.448 46.3387 13.352 46.3867 13.272C46.4427 13.2 46.5107 13.144 46.5907 13.104C46.7587 13.232 46.9947 13.348 47.2987 13.452C47.6027 13.564 47.9347 13.62 48.2947 13.62C48.8307 13.62 49.2387 13.504 49.5187 13.272C49.8067 13.048 49.9507 12.684 49.9507 12.18V11.424ZM48.6547 11.04C48.9747 11.04 49.2347 10.992 49.4347 10.896C49.6427 10.792 49.8147 10.676 49.9507 10.548V7.428C49.8147 7.34 49.6427 7.264 49.4347 7.2C49.2347 7.128 48.9947 7.092 48.7147 7.092C48.1707 7.092 47.7347 7.256 47.4067 7.584C47.0867 7.912 46.9267 8.4 46.9267 9.048C46.9267 9.408 46.9707 9.716 47.0587 9.972C47.1467 10.22 47.2667 10.424 47.4187 10.584C47.5787 10.744 47.7627 10.86 47.9707 10.932C48.1867 11.004 48.4147 11.04 48.6547 11.04ZM59.0023 10.524C59.0023 11.036 58.8143 11.436 58.4383 11.724C58.0623 12.012 57.5183 12.156 56.8063 12.156C56.5023 12.156 56.2223 12.128 55.9663 12.072C55.7103 12.024 55.4903 11.96 55.3063 11.88C55.1303 11.792 54.9903 11.696 54.8863 11.592C54.7903 11.48 54.7423 11.368 54.7423 11.256C54.7423 11.16 54.7663 11.068 54.8143 10.98C54.8703 10.892 54.9503 10.816 55.0543 10.752C55.2703 10.912 55.5223 11.056 55.8103 11.184C56.0983 11.304 56.4263 11.364 56.7943 11.364C57.6263 11.364 58.0423 11.084 58.0423 10.524C58.0423 10.068 57.7663 9.772 57.2143 9.636L56.2183 9.372C55.7303 9.244 55.3743 9.06 55.1503 8.82C54.9263 8.572 54.8143 8.256 54.8143 7.872C54.8143 7.664 54.8543 7.464 54.9343 7.272C55.0223 7.08 55.1543 6.912 55.3303 6.768C55.5063 6.624 55.7223 6.512 55.9783 6.432C56.2423 6.344 56.5503 6.3 56.9023 6.3C57.4623 6.3 57.9143 6.384 58.2583 6.552C58.6023 6.712 58.7743 6.9 58.7743 7.116C58.7743 7.22 58.7463 7.312 58.6903 7.392C58.6423 7.472 58.5743 7.532 58.4863 7.572C58.3423 7.476 58.1383 7.372 57.8743 7.26C57.6103 7.148 57.2983 7.092 56.9383 7.092C56.5783 7.092 56.2903 7.16 56.0743 7.296C55.8663 7.432 55.7623 7.624 55.7623 7.872C55.7623 8.056 55.8223 8.212 55.9423 8.34C56.0623 8.468 56.2623 8.564 56.5423 8.628L57.3703 8.832C57.9143 8.968 58.3223 9.172 58.5943 9.444C58.8663 9.708 59.0023 10.068 59.0023 10.524ZM65.6641 9.228C65.6641 9.676 65.6001 10.08 65.4721 10.44C65.3441 10.8 65.1601 11.108 64.9201 11.364C64.6881 11.62 64.4041 11.816 64.0681 11.952C63.7321 12.088 63.3561 12.156 62.9401 12.156C62.5241 12.156 62.1481 12.088 61.8121 11.952C61.4761 11.816 61.1881 11.62 60.9481 11.364C60.7081 11.108 60.5241 10.8 60.3961 10.44C60.2681 10.08 60.2041 9.676 60.2041 9.228C60.2041 8.78 60.2681 8.376 60.3961 8.016C60.5321 7.656 60.7201 7.348 60.9601 7.092C61.2001 6.836 61.4881 6.64 61.8241 6.504C62.1601 6.368 62.5321 6.3 62.9401 6.3C63.3481 6.3 63.7201 6.368 64.0561 6.504C64.3921 6.64 64.6761 6.836 64.9081 7.092C65.1481 7.348 65.3321 7.656 65.4601 8.016C65.5961 8.376 65.6641 8.78 65.6641 9.228ZM62.9401 7.092C62.3961 7.092 61.9681 7.28 61.6561 7.656C61.3441 8.032 61.1881 8.556 61.1881 9.228C61.1881 9.908 61.3401 10.436 61.6441 10.812C61.9561 11.18 62.3881 11.364 62.9401 11.364C63.4921 11.364 63.9201 11.176 64.2241 10.8C64.5281 10.424 64.6801 9.9 64.6801 9.228C64.6801 8.556 64.5241 8.032 64.2121 7.656C63.9081 7.28 63.4841 7.092 62.9401 7.092ZM72.2969 9.228C72.2969 9.676 72.2329 10.08 72.1049 10.44C71.9769 10.8 71.7929 11.108 71.5529 11.364C71.3209 11.62 71.0369 11.816 70.7009 11.952C70.3649 12.088 69.9889 12.156 69.5729 12.156C69.1569 12.156 68.7809 12.088 68.4449 11.952C68.1089 11.816 67.8209 11.62 67.5809 11.364C67.3409 11.108 67.1569 10.8 67.0289 10.44C66.9009 10.08 66.8369 9.676 66.8369 9.228C66.8369 8.78 66.9009 8.376 67.0289 8.016C67.1649 7.656 67.3529 7.348 67.5929 7.092C67.8329 6.836 68.1209 6.64 68.4569 6.504C68.7929 6.368 69.1649 6.3 69.5729 6.3C69.9809 6.3 70.3529 6.368 70.6889 6.504C71.0249 6.64 71.3089 6.836 71.5409 7.092C71.7809 7.348 71.9649 7.656 72.0929 8.016C72.2289 8.376 72.2969 8.78 72.2969 9.228ZM69.5729 7.092C69.0289 7.092 68.6009 7.28 68.2889 7.656C67.9769 8.032 67.8209 8.556 67.8209 9.228C67.8209 9.908 67.9729 10.436 68.2769 10.812C68.5889 11.18 69.0209 11.364 69.5729 11.364C70.1249 11.364 70.5529 11.176 70.8569 10.8C71.1609 10.424 71.3129 9.9 71.3129 9.228C71.3129 8.556 71.1569 8.032 70.8449 7.656C70.5409 7.28 70.1169 7.092 69.5729 7.092ZM77.6217 8.388C77.6217 7.94 77.4937 7.612 77.2377 7.404C76.9897 7.196 76.6537 7.092 76.2297 7.092C75.9097 7.092 75.6257 7.132 75.3777 7.212C75.1297 7.292 74.9177 7.384 74.7417 7.488V11.976C74.7017 11.992 74.6417 12.008 74.5617 12.024C74.4817 12.048 74.3937 12.06 74.2977 12.06C73.9537 12.06 73.7817 11.916 73.7817 11.628V7.536C73.7817 7.368 73.8137 7.232 73.8777 7.128C73.9497 7.016 74.0697 6.908 74.2377 6.804C74.4457 6.676 74.7217 6.56 75.0657 6.456C75.4097 6.352 75.7977 6.3 76.2297 6.3C76.9577 6.3 77.5297 6.464 77.9457 6.792C78.3697 7.12 78.5817 7.636 78.5817 8.34V11.976C78.5417 11.992 78.4777 12.008 78.3897 12.024C78.3097 12.048 78.2257 12.06 78.1377 12.06C77.7937 12.06 77.6217 11.916 77.6217 11.628V8.388Z" fill="white"/>
</svg>

<svg xmlns="http://www.w3.org/2000/svg" width="94" height="18" fill="none" xmlns:v="https://vecta.io/nano"><rect width="94" height="18" rx="9" fill="#00a490"/><path d="M17.299 7.104c-.272 0-.524.048-.756.144-.232.088-.432.224-.6.408-.168.176-.3.4-.396.672-.096.264-.144.568-.144.912 0 .688.172 1.216.516 1.584.344.36.804.54 1.38.54.336 0 .616-.044.84-.132.224-.096.424-.204.6-.324.088.048.16.108.216.18s.084.16.084.264c0 .112-.044.216-.132.312s-.212.18-.372.252c-.152.072-.336.128-.552.168-.208.048-.436.072-.684.072a3.55 3.55 0 0 1-1.152-.18 2.49 2.49 0 0 1-.912-.54 2.47 2.47 0 0 1-.6-.9c-.144-.368-.216-.8-.216-1.296 0-.488.076-.912.228-1.272.152-.368.356-.676.612-.924s.556-.432.9-.552a3.24 3.24 0 0 1 1.116-.192c.248 0 .476.024.684.072.216.04.4.1.552.18s.268.172.348.276c.088.096.132.196.132.3a.4.4 0 0 1-.084.252c-.056.072-.128.128-.216.168-.176-.12-.368-.224-.576-.312s-.48-.132-.816-.132zm8.17 2.124a3.6 3.6 0 0 1-.192 1.212 2.61 2.61 0 0 1-.552.924c-.232.256-.516.452-.852.588s-.712.204-1.128.204-.792-.068-1.128-.204-.624-.332-.864-.588a2.61 2.61 0 0 1-.552-.924 3.6 3.6 0 0 1-.192-1.212 3.6 3.6 0 0 1 .192-1.212c.136-.36.324-.668.564-.924s.528-.452.864-.588.708-.204 1.116-.204.78.068 1.116.204.62.332.852.588a2.61 2.61 0 0 1 .552.924c.136.36.204.764.204 1.212zm-2.724-2.136c-.544 0-.972.188-1.284.564s-.468.9-.468 1.572c0 .68.152 1.208.456 1.584.312.368.744.552 1.296.552s.98-.188 1.284-.564.456-.9.456-1.572-.156-1.196-.468-1.572c-.304-.376-.728-.564-1.272-.564zm11.241 1.14c0-.392-.112-.68-.336-.864s-.524-.276-.9-.276a2.02 2.02 0 0 0-1.392.552c.048.16.072.332.072.516v3.816a1.09 1.09 0 0 1-.192.048.87.87 0 0 1-.252.036c-.344 0-.516-.144-.516-.432V8.232c0-.392-.112-.68-.336-.864s-.528-.276-.912-.276a2.23 2.23 0 0 0-.732.12 2.76 2.76 0 0 0-.576.276v4.488c-.04.016-.1.032-.18.048-.08.024-.168.036-.264.036-.344 0-.516-.144-.516-.432V7.536c0-.16.032-.292.096-.396.072-.112.192-.224.36-.336.216-.136.488-.252.816-.348.336-.104.672-.156 1.008-.156.392 0 .74.06 1.044.18.304.112.536.268.696.468a2.54 2.54 0 0 1 .78-.456c.312-.128.668-.192 1.068-.192.648 0 1.164.156 1.548.468.384.304.576.776.576 1.416v3.792a1.09 1.09 0 0 1-.192.048.87.87 0 0 1-.252.036c-.344 0-.516-.144-.516-.432V8.232zm3.785 3.744c-.04.016-.1.032-.18.048-.08.024-.168.036-.264.036-.344 0-.516-.144-.516-.432V6.48c.04-.016.1-.032.18-.048.088-.024.18-.036.276-.036.336 0 .504.148.504.444v5.136zm-1.104-7.272a.57.57 0 0 1 .168-.42c.12-.12.272-.18.456-.18s.332.06.444.18a.57.57 0 0 1 .168.42.61.61 0 0 1-.168.432.6.6 0 0 1-.444.168c-.184 0-.336-.056-.456-.168a.61.61 0 0 1-.168-.432zm6.819 3.684c0-.448-.128-.776-.384-.984-.248-.208-.584-.312-1.008-.312-.32 0-.604.04-.852.12a3.16 3.16 0 0 0-.636.276v4.488c-.04.016-.1.032-.18.048-.08.024-.168.036-.264.036-.344 0-.516-.144-.516-.432V7.536a.77.77 0 0 1 .096-.408c.072-.112.192-.22.36-.324.208-.128.484-.244.828-.348s.732-.156 1.164-.156c.728 0 1.3.164 1.716.492.424.328.636.844.636 1.548v3.636a1.09 1.09 0 0 1-.192.048.87.87 0 0 1-.252.036c-.344 0-.516-.144-.516-.432v-3.24zm6.466 3.036c-.136.112-.324.208-.564.288a2.59 2.59 0 0 1-.84.12 3.37 3.37 0 0 1-.996-.144 2.32 2.32 0 0 1-.828-.48c-.232-.224-.42-.512-.564-.864-.136-.352-.204-.78-.204-1.284 0-.456.068-.856.204-1.2a2.42 2.42 0 0 1 .564-.864c.248-.232.54-.404.876-.516.336-.12.708-.18 1.116-.18.368 0 .704.048 1.008.144.312.088.572.2.78.336.12.08.216.172.288.276.08.096.12.216.12.36v4.824c0 .4-.068.736-.204 1.008a1.63 1.63 0 0 1-.552.672c-.232.176-.508.304-.828.384s-.664.12-1.032.12c-.408 0-.756-.044-1.044-.132-.28-.08-.472-.152-.576-.216-.24-.136-.36-.308-.36-.516a.55.55 0 0 1 .072-.288.59.59 0 0 1 .204-.168c.168.128.404.244.708.348a2.86 2.86 0 0 0 .996.168c.536 0 .944-.116 1.224-.348.288-.224.432-.588.432-1.092v-.756zm-1.296-.384c.32 0 .58-.048.78-.144a2.15 2.15 0 0 0 .516-.348v-3.12c-.136-.088-.308-.164-.516-.228-.2-.072-.44-.108-.72-.108-.544 0-.98.164-1.308.492-.32.328-.48.816-.48 1.464 0 .36.044.668.132.924a1.7 1.7 0 0 0 .36.612c.16.16.344.276.552.348a2.15 2.15 0 0 0 .684.108zm10.348-.516c0 .512-.188.912-.564 1.2s-.92.432-1.632.432c-.304 0-.584-.028-.84-.084-.256-.048-.476-.112-.66-.192-.176-.088-.316-.184-.42-.288-.096-.112-.144-.224-.144-.336a.57.57 0 0 1 .072-.276c.056-.088.136-.164.24-.228.216.16.468.304.756.432.288.12.616.18.984.18.832 0 1.248-.28 1.248-.84 0-.456-.276-.752-.828-.888l-.996-.264c-.488-.128-.844-.312-1.068-.552-.224-.248-.336-.564-.336-.948 0-.208.04-.408.12-.6.088-.192.22-.36.396-.504a1.91 1.91 0 0 1 .648-.336c.264-.088.572-.132.924-.132.56 0 1.012.084 1.356.252.344.16.516.348.516.564a.47.47 0 0 1-.084.276c-.048.08-.116.14-.204.18-.144-.096-.348-.2-.612-.312s-.576-.168-.936-.168-.648.068-.864.204a.65.65 0 0 0-.312.576.66.66 0 0 0 .18.468c.12.128.32.224.6.288l.828.204c.544.136.952.34 1.224.612.272.264.408.624.408 1.08zm6.662-1.296a3.6 3.6 0 0 1-.192 1.212 2.61 2.61 0 0 1-.552.924c-.232.256-.516.452-.852.588s-.712.204-1.128.204-.792-.068-1.128-.204-.624-.332-.864-.588a2.61 2.61 0 0 1-.552-.924 3.6 3.6 0 0 1-.192-1.212 3.6 3.6 0 0 1 .192-1.212c.136-.36.324-.668.564-.924s.528-.452.864-.588.708-.204 1.116-.204.78.068 1.116.204.62.332.852.588a2.61 2.61 0 0 1 .552.924c.136.36.204.764.204 1.212zM62.94 7.092c-.544 0-.972.188-1.284.564s-.468.9-.468 1.572c0 .68.152 1.208.456 1.584.312.368.744.552 1.296.552s.98-.188 1.284-.564.456-.9.456-1.572-.156-1.196-.468-1.572c-.304-.376-.728-.564-1.272-.564zm9.357 2.136a3.6 3.6 0 0 1-.192 1.212 2.61 2.61 0 0 1-.552.924c-.232.256-.516.452-.852.588s-.712.204-1.128.204-.792-.068-1.128-.204-.624-.332-.864-.588a2.61 2.61 0 0 1-.552-.924 3.6 3.6 0 0 1-.192-1.212 3.6 3.6 0 0 1 .192-1.212c.136-.36.324-.668.564-.924s.528-.452.864-.588.708-.204 1.116-.204.78.068 1.116.204.62.332.852.588a2.61 2.61 0 0 1 .552.924c.136.36.204.764.204 1.212zm-2.724-2.136c-.544 0-.972.188-1.284.564s-.468.9-.468 1.572c0 .68.152 1.208.456 1.584.312.368.744.552 1.296.552s.98-.188 1.284-.564.456-.9.456-1.572-.156-1.196-.468-1.572c-.304-.376-.728-.564-1.272-.564zm8.049 1.296c0-.448-.128-.776-.384-.984-.248-.208-.584-.312-1.008-.312-.32 0-.604.04-.852.12a3.16 3.16 0 0 0-.636.276v4.488c-.04.016-.1.032-.18.048-.08.024-.168.036-.264.036-.344 0-.516-.144-.516-.432V7.536a.77.77 0 0 1 .096-.408c.072-.112.192-.22.36-.324.208-.128.484-.244.828-.348s.732-.156 1.164-.156c.728 0 1.3.164 1.716.492.424.328.636.844.636 1.548v3.636a1.09 1.09 0 0 1-.192.048.87.87 0 0 1-.252.036c-.344 0-.516-.144-.516-.432v-3.24z" fill="#fff"/></svg>
